img/climate-icon/cooling.svg

<svg width="25" height="24" viewBox="0 0 25 24" fill="none" xmlns="http://www.w3.org/2000/svg">
<path d="M12.5 9.25C12.09 9.25 11.75 8.91 11.75 8.5V3C11.75 2.59 12.09 2.25 12.5 2.25C12.91 2.25 13.25 2.59 13.25 3V8.5C13.25 8.91 12.91 9.25 12.5 9.25Z" fill="white"/>
<path d="M12.5 21.75C12.09 21.75 11.75 21.41 11.75 21V15.5C11.75 15.09 12.09 14.75 12.5 14.75C12.91 14.75 13.25 15.09 13.25 15.5V21C13.25 21.41 12.91 21.75 12.5 21.75Z" fill="white"/>
<path d="M14.5 3.75H10.5C10.09 3.75 9.75 3.41 9.75 3C9.75 2.59 10.09 2.25 10.5 2.25H14.5C14.91 2.25 15.25 2.59 15.25 3C15.25 3.41 14.91 3.75 14.5 3.75Z" fill="white"/>
<path d="M14.5 21.75H10.5C10.09 21.75 9.75 21.41 9.75 21C9.75 20.59 10.09 20.25 10.5 20.25H14.5C14.91 20.25 15.25 20.59 15.25 21C15.25 21.41 14.91 21.75 14.5 21.75Z" fill="white"/>
<path d="M9.47013 10.9999C9.34013 10.9999 9.21013 10.9699 9.10013 10.8999L4.34013 8.14992C3.98013 7.93992 3.86013 7.47993 4.07013 7.12993C4.28013 6.76993 4.74013 6.64992 5.09013 6.85992L9.85013 9.60992C10.2101 9.81992 10.3301 10.2799 10.1201 10.6299C9.98013 10.8699 9.73013 10.9999 9.47013 10.9999Z" fill="white"/>
<path d="M20.29 17.2499C20.16 17.2499 20.03 17.2199 19.92 17.1499L15.16 14.3999C14.8 14.1899 14.68 13.7299 14.89 13.3799C15.1 13.0199 15.56 12.8999 15.91 13.1099L20.67 15.8599C21.03 16.0699 21.15 16.5299 20.94 16.8799C20.8 17.1199 20.55 17.2499 20.29 17.2499Z" fill="white"/>
<path d="M3.71013 9.97994C3.58013 9.97994 3.45013 9.94995 3.34013 9.87995C2.98013 9.66995 2.86013 9.20994 3.07013 8.85994L5.07013 5.39994C5.28013 5.03994 5.74013 4.91995 6.09013 5.12995C6.45013 5.33995 6.57013 5.79994 6.36013 6.14994L4.36013 9.60994C4.22013 9.84994 3.96013 9.97994 3.71013 9.97994Z" fill="white"/>
<path d="M19.2902 18.9799C19.1602 18.9799 19.0302 18.9499 18.9202 18.8799C18.5602 18.6699 18.4402 18.2099 18.6502 17.8599L20.6502 14.3999C20.8602 14.0399 21.3202 13.9199 21.6702 14.1299C22.0302 14.3399 22.1502 14.7999 21.9402 15.1499L19.9402 18.6099C19.8102 18.8499 19.5502 18.9799 19.2902 18.9799Z" fill="white"/>
<path d="M12.5 16.25C10.99 16.25 9.58 15.44 8.82 14.13C8.44 13.47 8.25 12.76 8.25 12C8.25 11.24 8.44 10.53 8.82 9.88002C9.58 8.57002 10.99 7.76001 12.5 7.76001C14.01 7.76001 15.42 8.57002 16.18 9.88002C16.56 10.54 16.75 11.25 16.75 12.01C16.75 12.77 16.56 13.48 16.18 14.13C15.42 15.44 14.01 16.25 12.5 16.25ZM12.5 9.25002C11.52 9.25002 10.61 9.78002 10.12 10.63C9.88 11.05 9.75 11.52 9.75 12C9.75 12.48 9.87 12.95 10.12 13.38C10.61 14.23 11.52 14.76 12.5 14.76C13.48 14.76 14.39 14.23 14.88 13.38C15.12 12.96 15.25 12.49 15.25 12.01C15.25 11.53 15.13 11.06 14.88 10.63C14.39 9.78002 13.48 9.25002 12.5 9.25002Z" fill="white"/>
<path d="M15.5299 11.0002C15.2699 11.0002 15.0199 10.8702 14.8799 10.6202C14.6699 10.2602 14.7999 9.80017 15.1499 9.60017L19.9099 6.85017C20.2699 6.64017 20.7299 6.77015 20.9299 7.12015C21.1399 7.48015 21.0099 7.94016 20.6599 8.14016L15.8999 10.8902C15.7899 10.9702 15.6599 11.0002 15.5299 11.0002Z" fill="white"/>
<path d="M4.71012 17.2502C4.45012 17.2502 4.20012 17.1202 4.06012 16.8702C3.85012 16.5102 3.98012 16.0502 4.33012 15.8502L9.09012 13.1002C9.45012 12.8902 9.91012 13.0202 10.1101 13.3702C10.3201 13.7302 10.1901 14.1902 9.84012 14.3902L5.08012 17.1402C4.97012 17.2202 4.84012 17.2502 4.71012 17.2502Z" fill="white"/>
<path d="M21.2902 9.97994C21.0302 9.97994 20.7802 9.84995 20.6402 9.59995L18.6402 6.13994C18.4302 5.77994 18.5602 5.31994 18.9102 5.11994C19.2702 4.90994 19.7302 5.03994 19.9302 5.38994L21.9302 8.84995C22.1402 9.20995 22.0102 9.66994 21.6602 9.86994C21.5502 9.94994 21.4202 9.97994 21.2902 9.97994Z" fill="white"/>
<path d="M5.71012 18.9799C5.45012 18.9799 5.20012 18.8499 5.06012 18.5999L3.06012 15.1399C2.85012 14.7799 2.98012 14.3199 3.33012 14.1199C3.69012 13.9099 4.15012 14.0399 4.35012 14.3899L6.35012 17.8499C6.56012 18.2099 6.43012 18.6699 6.08012 18.8699C5.96012 18.9499 5.83012 18.9799 5.71012 18.9799Z" fill="white"/>
</svg>

<svg width="25" height="24" fill="none" xmlns="http://www.w3.org/2000/svg"><path d="M12.5 9.25c-.41 0-.75-.34-.75-.75V3c0-.41.34-.75.75-.75s.75.34.75.75v5.5c0 .41-.34.75-.75.75zM12.5 21.75c-.41 0-.75-.34-.75-.75v-5.5c0-.41.34-.75.75-.75s.75.34.75.75V21c0 .41-.34.75-.75.75z" fill="#fff"/><path d="M14.5 3.75h-4c-.41 0-.75-.34-.75-.75s.34-.75.75-.75h4c.41 0 .75.34.75.75s-.34.75-.75.75zM14.5 21.75h-4c-.41 0-.75-.34-.75-.75s.34-.75.75-.75h4c.41 0 .75.34.75.75s-.34.75-.75.75zM9.47 11c-.13 0-.26-.03-.37-.1L4.34 8.15a.742.742 0 0 1-.27-1.02c.21-.36.67-.48 1.02-.27l4.76 2.75A.746.746 0 0 1 9.47 11zM20.29 17.25c-.13 0-.26-.03-.37-.1l-4.76-2.75a.742.742 0 0 1-.27-1.02c.21-.36.67-.48 1.02-.27l4.76 2.75a.746.746 0 0 1-.38 1.39z" fill="#fff"/><path d="M3.71 9.98c-.13 0-.26-.03-.37-.1a.742.742 0 0 1-.27-1.02l2-3.46c.21-.36.67-.48 1.02-.27.36.21.48.67.27 1.02l-2 3.46c-.14.24-.4.37-.65.37zM19.29 18.98c-.13 0-.26-.03-.37-.1a.742.742 0 0 1-.27-1.02l2-3.46c.21-.36.67-.48 1.02-.27.36.21.48.67.27 1.02l-2 3.46c-.13.24-.39.37-.65.37zM12.5 16.25c-1.51 0-2.92-.81-3.68-2.12-.38-.66-.57-1.37-.57-2.13 0-.76.19-1.47.57-2.12a4.266 4.266 0 0 1 3.68-2.12c1.51 0 2.92.81 3.68 2.12.38.66.57 1.37.57 2.13 0 .76-.19 1.47-.57 2.12a4.266 4.266 0 0 1-3.68 2.12zm0-7a2.755 2.755 0 0 0 0 5.51 2.755 2.755 0 0 0 0-5.51z" fill="#fff"/><path d="M15.53 11c-.26 0-.51-.13-.65-.38a.746.746 0 0 1 .27-1.02l4.76-2.75a.746.746 0 0 1 .75 1.29l-4.76 2.75c-.11.08-.24.11-.37.11zM4.71 17.25c-.26 0-.51-.13-.65-.38a.746.746 0 0 1 .27-1.02l4.76-2.75a.746.746 0 0 1 .75 1.29l-4.76 2.75c-.11.08-.24.11-.37.11z" fill="#fff"/><path d="M21.29 9.98c-.26 0-.51-.13-.65-.38l-2-3.46a.746.746 0 0 1 1.29-.75l2 3.46c.21.36.08.82-.27 1.02-.11.08-.24.11-.37.11zM5.71 18.98c-.26 0-.51-.13-.65-.38l-2-3.46a.746.746 0 0 1 1.29-.75l2 3.46c.21.36.08.82-.27 1.02a.66.66 0 0 1-.37.11z" fill="#fff"/></svg>
